X: 26068
T: McCuskers'
R: mazurka
M: 3/4
K: Dmajor
|:A>A d2 A2|A>A c2 B2|B>B g2 B2|c>c e2 d2|
A>A d2 A2|A>A c2 B2|B>B g2 B2|c2 e2 d2:|
|:f>a b2 a2|f>e d>e f2|e>d c2 e2|A>c d2 f2|
a>a b2 a2|f>e d>e f2|e>d c2 e2|c>e d2 d2:|

